carriers/postAt.svg

<svg width="128" height="64" viewBox="0 0 128 64" fill="none" xmlns="http://www.w3.org/2000/svg">
<rect width="128" height="64" rx="6" fill="#FFDC00"/>
<path d="M45.9603 14.891H31.0043C29.5043 14.891 28.5083 15.895 28.5083 17.207C28.4909 17.8612 28.7032 18.5009 29.1083 19.015L38.0523 32.423C37.7843 25.035 41.2843 18.575 45.9603 14.891ZM36.7603 25.747C36.7203 25.979 36.6883 26.215 36.6603 26.451L30.9723 17.711C30.9313 17.6484 30.9052 17.5772 30.8963 17.503C30.8878 17.4414 30.8991 17.3788 30.9285 17.3241C30.958 17.2694 31.0042 17.2256 31.0603 17.199C31.1272 17.1652 31.2014 17.1486 31.2763 17.151H40.8043C40.7043 17.267 40.6003 17.387 40.5003 17.511L40.3683 17.675C40.0249 18.0988 39.7044 18.5408 39.4083 18.999C39.0278 19.5787 38.6806 20.1797 38.3683 20.799C38.1523 21.239 37.9683 21.695 37.7643 22.163C37.7083 22.299 37.6563 22.439 37.6043 22.563C37.2235 23.6003 36.9435 24.6719 36.7683 25.763L36.7603 25.747Z" fill="black"/>
<path d="M97.0045 14.8909H79.4405L68.8885 31.0989C65.6485 36.0829 63.4445 38.1589 60.0885 38.1589C56.5165 38.1589 53.7485 35.8109 53.7485 32.0389C53.7485 28.2669 56.3725 25.6909 59.9645 25.6909C62.5365 25.6909 64.4085 27.0509 65.7205 28.5549L72.0885 18.9549C69.3325 16.0309 65.1485 13.9989 59.9085 13.9989C49.5085 13.9989 41.8045 21.8829 41.9085 32.2869C42.0045 42.3989 49.6925 49.8869 60.0845 49.9989C70.6765 50.1149 78.3245 45.6389 98.6685 19.1989C99.3005 18.3749 99.4925 17.8989 99.4925 17.1989C99.5005 15.8949 98.5045 14.8909 97.0045 14.8909ZM97.0805 17.4829C97.068 17.5546 97.0377 17.622 96.9925 17.6789C93.3245 22.4789 90.0845 26.4989 87.2045 29.9069L86.5165 30.7069C86.0045 31.2989 85.5045 31.8749 85.0165 32.4269C84.6685 32.8269 84.3245 33.2269 83.9845 33.5789C83.2965 34.3416 82.6298 35.0656 81.9845 35.7509L81.3405 36.4269L80.4005 37.3869C80.0885 37.6989 79.7845 38.0029 79.4805 38.2989L78.8845 38.8749C78.6725 39.0749 78.4845 39.2749 78.2525 39.4669C78.0205 39.6589 77.7205 39.9629 77.4525 40.1989C76.8738 40.7323 76.3098 41.2203 75.7605 41.6629C75.5005 41.8789 75.2405 42.0909 74.9885 42.2909L73.9565 43.0909C73.4445 43.4669 72.9472 43.8149 72.4645 44.1349C72.1365 44.3469 71.8165 44.5349 71.5005 44.7429C71.0285 45.0269 70.5605 45.2869 70.1045 45.5429L69.6485 45.7749C69.1925 45.9949 68.7485 46.1749 68.3045 46.3709C68.1565 46.4309 68.0125 46.4909 67.8645 46.5429C67.5725 46.6549 67.2805 46.7549 66.9925 46.8469L66.5605 46.9789C66.1285 47.1069 65.7005 47.2149 65.2765 47.3069C64.8525 47.3989 64.4205 47.4749 63.9965 47.5389C63.4285 47.6189 62.8605 47.6789 62.2885 47.7149C61.5725 47.7589 60.8525 47.7749 60.1165 47.7669C59.5526 47.7634 58.9892 47.7314 58.4285 47.6709C57.8765 47.6149 57.3432 47.5349 56.8285 47.4309C55.5418 47.1786 54.2892 46.7759 53.0965 46.2309C52.6325 46.0189 52.1845 45.7869 51.7485 45.5349C50.672 44.9167 49.6775 44.1655 48.7885 43.2989C48.4355 42.9579 48.1004 42.5987 47.7845 42.2229C47.6285 42.0349 47.4725 41.8229 47.3245 41.6469C47.0285 41.2469 46.7485 40.8469 46.4885 40.4229C45.0119 37.9654 44.2282 35.1539 44.2205 32.2869C44.1085 23.0869 50.8045 16.2869 59.9885 16.2869H60.6885C61.5742 16.3188 62.4558 16.4232 63.3245 16.5989C63.7245 16.6869 64.1445 16.7869 64.5245 16.9029C65.8414 17.2899 67.0926 17.8724 68.2365 18.6309C68.5525 18.8429 68.8525 19.0629 69.1445 19.2949L65.2805 25.1989C64.5572 24.6477 63.7457 24.2231 62.8805 23.9429C62.4013 23.7828 61.9106 23.6598 61.4125 23.5749C60.9039 23.487 60.3887 23.4428 59.8725 23.4429C55.1285 23.4429 51.4725 26.9989 51.4725 32.0389C51.4725 37.0789 55.2205 40.4389 60.0685 40.4389C61.9333 40.467 63.7572 39.8918 65.2685 38.7989C65.7073 38.4893 66.1243 38.1498 66.5165 37.7829C67.846 36.4727 69.0252 35.0184 70.0325 33.4469C70.2298 33.1589 70.4258 32.8629 70.6205 32.5589L80.6525 17.1629H96.7365C96.9485 17.1629 97.0725 17.2629 97.0885 17.4069C97.0899 17.4325 97.0872 17.4582 97.0805 17.4829Z" fill="black"/>
</svg>

<svg xmlns="http://www.w3.org/2000/svg" width="128" height="64" fill="none"><rect width="128" height="64" fill="#FFDC00" rx="6"/><path fill="#000" d="M45.96 14.891H31.004c-1.5 0-2.496 1.004-2.496 2.316a2.801 2.801 0 0 0 .6 1.808l8.944 13.408c-.268-7.388 3.232-13.848 7.908-17.532Zm-9.2 10.856c-.04.232-.072.468-.1.704l-5.688-8.74a.485.485 0 0 1-.076-.208.293.293 0 0 1 .164-.304.447.447 0 0 1 .216-.048h9.528c-.1.116-.204.236-.304.36l-.132.164c-.343.424-.664.866-.96 1.324-.38.58-.727 1.18-1.04 1.8-.216.44-.4.896-.604 1.364-.056.136-.108.276-.16.4a17.197 17.197 0 0 0-.836 3.2l-.008-.016ZM97.004 14.89H79.44L68.888 31.1c-3.24 4.984-5.444 7.06-8.8 7.06-3.572 0-6.34-2.348-6.34-6.12 0-3.772 2.625-6.348 6.217-6.348 2.571 0 4.444 1.36 5.755 2.864l6.368-9.6c-2.755-2.924-6.94-4.956-12.18-4.956-10.4 0-18.104 7.884-18 18.288.096 10.112 7.785 17.6 18.176 17.712 10.593.116 18.24-4.36 38.584-30.8.632-.824.825-1.3.825-2 .008-1.304-.989-2.308-2.489-2.308Zm.076 2.593a.435.435 0 0 1-.087.196c-3.668 4.8-6.908 8.82-9.788 12.228l-.689.8c-.512.592-1.012 1.168-1.5 1.72-.348.4-.692.8-1.032 1.152-.688.763-1.354 1.487-2 2.172l-.643.676-.94.96a97.6 97.6 0 0 1-.92.912l-.596.576c-.213.2-.4.4-.633.592-.231.192-.531.496-.8.732a33.745 33.745 0 0 1-1.692 1.464c-.26.216-.52.428-.772.628l-1.031.8a37.99 37.99 0 0 1-1.492 1.044c-.329.212-.648.4-.965.608-.472.284-.94.544-1.395.8l-.457.232c-.456.22-.9.4-1.343.596-.149.06-.293.12-.44.172-.292.112-.584.212-.872.304l-.432.132c-.433.128-.86.236-1.285.328-.423.092-.855.168-1.28.232-.568.08-1.136.14-1.708.176a30 30 0 0 1-2.171.052 16.701 16.701 0 0 1-1.688-.096 16.47 16.47 0 0 1-1.6-.24 16.72 16.72 0 0 1-3.733-1.2 15.864 15.864 0 0 1-1.347-.696 14.797 14.797 0 0 1-2.96-2.236c-.354-.341-.689-.7-1.005-1.076-.155-.188-.312-.4-.46-.576-.295-.4-.575-.8-.835-1.224a15.88 15.88 0 0 1-2.268-8.136c-.112-9.2 6.584-16 15.768-16h.7c.885.032 1.767.136 2.636.312.4.088.82.188 1.2.304 1.316.387 2.568.97 3.712 1.728.316.212.616.432.907.664l-3.864 5.904a8.053 8.053 0 0 0-2.4-1.256c-.479-.16-.97-.283-1.468-.368a9.032 9.032 0 0 0-1.54-.132c-4.743 0-8.4 3.556-8.4 8.596s3.748 8.4 8.596 8.4a8.651 8.651 0 0 0 5.2-1.64c.44-.31.856-.65 1.248-1.016a25.118 25.118 0 0 0 3.516-4.336c.198-.288.394-.584.589-.888l10.032-15.396h16.084c.212 0 .336.1.352.244a.24.24 0 0 1-.008.076Z"/></svg>
